X: 1
T: Follow Her Over The Border
M: 9/8
L: 1/8
R: slip jig
K: Dmaj
|: ABA F2 D F2 d | ABA FGA Bcd | 
ABA F2 D FAd | EFE E2 F G2 B :|
|: Add dcB AFD | A2 d dcB A>FG |
A2 d dcB A2 D | EFE E2 F G>AB :|
